gy/si-glyph-key.svg

<svg viewBox="0 0 17 16" xmlns="http://www.w3.org/2000/svg" class="si-glyph si-glyph-key" height="1em" width="1em">
  <path d="M9.885.764C8.678 1.971 8.862 3.473 9.609 4.22l1.121 1.121-9.496 9.497c-.246.246-.229.667.041.937s.689.288.937.04l1.387-1.386 1.556 1.555.534-.532.444-.446.533-.532-1.556-1.557 1.355-1.355 1.066 1.066.979-.979-1.065-1.065 4.263-4.265 1.121 1.121c.783.783 2.434.748 3.457-.275 1.023-1.023.82-2.748.111-3.458L13.176.488c-.592-.593-2.248-.767-3.291.276Zm5.42 3.969c.297.297-.162 1.12-.27 1.228-.104.104-.926.562-1.224.265l-2.946-2.945c-.297-.297.162-1.118.268-1.224.107-.107.929-.565 1.226-.27l2.946 2.946Z" fill="#434343" class="si-glyph-fill" fill-rule="evenodd"/>
</svg>

<svg viewBox="0 0 17 16" version="1.1" xmlns="http://www.w3.org/2000/svg" class="si-glyph si-glyph-key" height="1em" width="1em">
  <g stroke="none" stroke-width="1" fill="none" fill-rule="evenodd">
    <path d="M9.885,0.764 C8.678,1.971 8.862,3.473 9.609,4.22 L10.73,5.341 L1.234,14.838 C0.988,15.084 1.005,15.505 1.275,15.775 C1.545,16.045 1.964,16.063 2.212,15.815 L3.599,14.429 L5.155,15.984 L5.689,15.452 L6.133,15.006 L6.666,14.474 L5.11,12.917 L6.465,11.562 L7.531,12.628 L8.51,11.649 L7.445,10.584 L11.708,6.319 L12.829,7.44 C13.612,8.223 15.263,8.188 16.286,7.165 C17.309,6.142 17.106,4.417 16.397,3.707 L13.176,0.488 C12.584,-0.105 10.928,-0.279 9.885,0.764 L9.885,0.764 Z M15.305,4.733 C15.602,5.03 15.143,5.853 15.035,5.961 C14.931,6.065 14.109,6.523 13.811,6.226 L10.865,3.281 C10.568,2.984 11.027,2.163 11.133,2.057 C11.24,1.95 12.062,1.492 12.359,1.787 L15.305,4.733 L15.305,4.733 Z" fill="#434343" class="si-glyph-fill"/>
  </g>
</svg>
